svg/food/wine_line.svg

<?xml version="1.0" encoding="UTF-8"?>
<svg width="24px" height="24px" viewBox="0 0 24 24" version="1.1" xmlns="http://www.w3.org/2000/svg" xmlns:xlink="http://www.w3.org/1999/xlink">
    <title>wine_line</title>
    <g id="Icon" stroke="none" stroke-width="1" fill="none" fill-rule="evenodd">
        <g id="Food" transform="translate(-48.000000, -97.000000)">
            <g id="wine_line" transform="translate(48.000000, 97.000000)">
                <path d="M24,0 L24,24 L0,24 L0,0 L24,0 Z M12.5935,23.2578 L12.5819,23.2595 L12.5109,23.295 L12.4919,23.2987 L12.4767,23.295 L12.4057,23.2595 C12.3958,23.2564 12.387,23.259 12.3821,23.2649 L12.378,23.2758 L12.3609,23.7031 L12.3659,23.7235 L12.3769,23.7357 L12.4805,23.8097 L12.4953,23.8136 L12.5071,23.8097 L12.6107,23.7357 L12.6233,23.7197 L12.6267,23.7031 L12.6096,23.2758 C12.6076,23.2657 12.601,23.2593 12.5935,23.2578 Z M12.8584,23.1453 L12.8445,23.1473 L12.6598,23.2397 L12.6499,23.2499 L12.6472,23.2611 L12.6651,23.6906 L12.6699,23.7034 L12.6784,23.7105 L12.8793,23.8032 C12.8914,23.8069 12.9022,23.803 12.9078,23.7952 L12.9118,23.7812 L12.8777,23.1665 C12.8753,23.1546 12.8674,23.147 12.8584,23.1453 Z M12.143,23.1473 C12.1332,23.1424 12.1222,23.1453 12.1156,23.1526 L12.1099,23.1665 L12.0758,23.7812 C12.0751,23.7927 12.0828,23.8019 12.0926,23.8046 L12.1083,23.8032 L12.3092,23.7105 L12.3186,23.7024 L12.3225,23.6906 L12.3404,23.2611 L12.3372,23.2485 L12.3278,23.2397 L12.143,23.1473 Z" id="MingCute" fill-rule="nonzero"></path>
                <path d="M11.4201,2 C10.38,2 9.51342,2.79733 9.42704,3.83391 L9.04355,8.43578 L7.3359,9.57422 C6.5013,10.1306 6,11.0673 6,12.0704 L6,19 C6,20.6569 7.34315,22 9,22 L15,22 C16.6569,22 18,20.6569 18,19 L18,12.0704 C18,11.0673 17.4987,10.1306 16.6641,9.57422 L14.9564,8.43578 L14.573,3.83391 C14.4866,2.79732 13.62,2 12.5799,2 L11.4201,2 Z M16,14 L12,14 C11.4477,14 11,14.4477 11,15 C11,15.5523 11.4477,16 12,16 L16,16 L16,19 C16,19.5523 15.5523,20 15,20 L9,20 C8.44772,20 8,19.5523 8,19 L8,12.0704 C8,11.736 8.1671,11.4238 8.4453,11.2383 L10.153,10.0999 C10.6606,9.76146 10.986,9.20986 11.0366,8.60187 L11.4201,4 L12.5799,4 L12.9634,8.60187 C13.014,9.20986 13.3394,9.76146 13.847,10.0999 L15.5547,11.2383 C15.8329,11.4238 16,11.736 16,12.0704 L16,14 Z" id="形状" fill="#09244B"></path>
            </g>
        </g>
    </g>
</svg>

<svg xmlns="http://www.w3.org/2000/svg" width="24" height="24"><g fill="none" fill-rule="evenodd"><path d="M24 0v24H0V0h24ZM12.594 23.258l-.012.002-.071.035-.02.004-.014-.004-.071-.036c-.01-.003-.019 0-.024.006l-.004.01-.017.428.005.02.01.013.104.074.015.004.012-.004.104-.074.012-.016.004-.017-.017-.427c-.002-.01-.009-.017-.016-.018Zm.264-.113-.014.002-.184.093-.01.01-.003.011.018.43.005.012.008.008.201.092c.012.004.023 0 .029-.008l.004-.014-.034-.614c-.003-.012-.01-.02-.02-.022Zm-.715.002a.023.023 0 0 0-.027.006l-.006.014-.034.614c0 .012.007.02.017.024l.015-.002.201-.093.01-.008.003-.011.018-.43-.003-.012-.01-.01-.184-.092Z"/><path fill="#09244B" d="M11.42 2a2 2 0 0 0-1.993 1.834l-.383 4.602-1.708 1.138A3 3 0 0 0 6 12.07V19a3 3 0 0 0 3 3h6a3 3 0 0 0 3-3v-6.93a3 3 0 0 0-1.336-2.496l-1.708-1.138-.383-4.602A2 2 0 0 0 12.58 2h-1.16ZM16 14h-4a1 1 0 1 0 0 2h4v3a1 1 0 0 1-1 1H9a1 1 0 0 1-1-1v-6.93a1 1 0 0 1 .445-.832l1.708-1.138a2 2 0 0 0 .884-1.498L11.42 4h1.16l.383 4.602a2 2 0 0 0 .884 1.498l1.708 1.138a1 1 0 0 1 .445.832V14Z"/></g></svg>
